images/arrow-white.svg

<?xml version="1.0"?>
<svg width="21" height="13" xmlns="http://www.w3.org/2000/svg" xmlns:svg="http://www.w3.org/2000/svg">
 <g class="layer">
  <title>Layer 1</title>
  <path clip-rule="evenodd" d="m21,6.47656l-0.7248,0.72483l-5.7986,5.79861l-0.7029,-0.7029l5.3207,-5.32064l-19.0944,0l0,-1l19.0502,0l-5.2516,-5.25163l0.7248,-0.72483l5.7737,5.77369l0.7029,0.70287z" fill="#ECEBE8" fill-rule="evenodd" id="svg_1" transform="rotate(179.552 10.5 6.5)"/>
 </g>
</svg>

<svg width="21" height="13" viewBox="0 0 21 13" fill="none" xmlns="http://www.w3.org/2000/svg">
<path fill-rule="evenodd" clip-rule="evenodd" d="M21 6.47656L20.2752 7.20139L14.4766 13L13.7737 12.2971L19.0944 6.97646L-3.63036e-07 6.97646L-3.10999e-07 5.97646L19.0502 5.97646L13.7986 0.724826L14.5234 -2.37804e-07L20.2971 5.77369L21 6.47656Z" fill="#ECEBE8"/>
</svg>
